X:1
T:Lulle Lullay
M:6/8
L:1/8
Q:120
C:Traditional
F:http://www.folkinfo.org/songs
K:F
F || (FD)F (AG)A | (GF)G (CD)E | 
w:Lul-lay,_ thou ti_ny lit_tle child,_ Bye
(FG)A (BA)G | (c3c2)c | (dc)d (AG)F |
w:bye,_ lul-le,_ lul-lay:_ Lul-lay,_ thou ti_ny
(GA)E (CD)E | (FD)F (GF)C | (D3D2) ||
w:lit_tle child,_ Bye bye,_ lul-le_ lul-lay.
